places/symbolic/folder-documents-symbolic.svg

<?xml version="1.0" encoding="UTF-8" standalone="no"?>
<!-- Created with Inkscape (http://www.inkscape.org/) -->

<svg
   xmlns:dc="http://purl.org/dc/elements/1.1/"
   xmlns:cc="http://creativecommons.org/ns#"
   xmlns:rdf="http://www.w3.org/1999/02/22-rdf-syntax-ns#"
   xmlns:svg="http://www.w3.org/2000/svg"
   xmlns="http://www.w3.org/2000/svg"
   xmlns:xlink="http://www.w3.org/1999/xlink"
   xmlns:sodipodi="http://sodipodi.sourceforge.net/DTD/sodipodi-0.dtd"
   xmlns:inkscape="http://www.inkscape.org/namespaces/inkscape"
   version="1.1"
   width="16"
   height="16"
   id="svg7384"
   inkscape:version="0.48.3.1 r9886"
   sodipodi:docname="folder-documents-symbolic.svg">
  <sodipodi:namedview
     pagecolor="#ffffff"
     bordercolor="#666666"
     borderopacity="1"
     objecttolerance="10"
     gridtolerance="10"
     guidetolerance="10"
     inkscape:pageopacity="0"
     inkscape:pageshadow="2"
     inkscape:window-width="1280"
     inkscape:window-height="752"
     id="namedview7"
     showgrid="true"
     inkscape:zoom="23.380546"
     inkscape:cx="6.5944342"
     inkscape:cy="7.9412332"
     inkscape:window-x="0"
     inkscape:window-y="26"
     inkscape:window-maximized="1"
     inkscape:current-layer="svg7384">
    <inkscape:grid
       type="xygrid"
       id="grid2996" />
  </sodipodi:namedview>
  <title
     id="title9167">Gnome Symbolic Icon Theme</title>
  <defs
     id="defs11">
    <linearGradient
       id="linearGradient4125">
      <stop
         style="stop-color:#bebebe;stop-opacity:0.72941178;"
         offset="0"
         id="stop4127" />
      <stop
         id="stop4129"
         offset="0.08611956"
         style="stop-color:#c8c8c8;stop-opacity:1;" />
      <stop
         style="stop-color:#cdcdcd;stop-opacity:0.87843138;"
         offset="0.92370826"
         id="stop4131" />
      <stop
         style="stop-color:#d3d3d3;stop-opacity:0.74901962;"
         offset="1"
         id="stop4133" />
    </linearGradient>
    <linearGradient
       inkscape:collect="always"
       xlink:href="#linearGradient4125"
       id="linearGradient4032"
       gradientUnits="userSpaceOnUse"
       gradientTransform="matrix(0.64285714,0,0,1.5,9.3571429,-3.0000004)"
       x1="8"
       y1="11.333334"
       x2="8"
       y2="4.666667" />
    <linearGradient
       id="linearGradient4114-1">
      <stop
         id="stop4116-38"
         offset="0"
         style="stop-color:#bebebe;stop-opacity:0.40000001;" />
      <stop
         style="stop-color:#c8c8c8;stop-opacity:0.4173913;"
         offset="0.08611956"
         id="stop4122-7" />
      <stop
         id="stop4124-4"
         offset="0.92370826"
         style="stop-color:#cdcdcd;stop-opacity:0.4173913;" />
      <stop
         id="stop4118-9"
         offset="1"
         style="stop-color:#d3d3d3;stop-opacity:0;" />
    </linearGradient>
    <linearGradient
       y2="4.666667"
       x2="8"
       y1="11.333334"
       x1="8"
       gradientTransform="matrix(0.64285714,0,0,1.5,7.3571429,-4e-7)"
       gradientUnits="userSpaceOnUse"
       id="linearGradient4052"
       xlink:href="#linearGradient4114-1"
       inkscape:collect="always" />
  </defs>
  <metadata
     id="metadata90">
    <rdf:RDF>
      <cc:Work
         rdf:about="">
        <dc:format>image/svg+xml</dc:format>
        <dc:type
           rdf:resource="http://purl.org/dc/dcmitype/StillImage" />
        <dc:title>Gnome Symbolic Icon Theme</dc:title>
      </cc:Work>
    </rdf:RDF>
  </metadata>
  <path
     style="color:#bebebe;fill:#bebebe;fill-opacity:1;fill-rule:nonzero;stroke:none;stroke-width:1;marker:none;visibility:visible;display:inline;overflow:visible;enable-background:accumulate"
     d="M 4.5,0 C 4.223,0 4,0.223 4,0.5 L 4,2 5,2 5,1 l 9,0 0,12 -2,0 0,1 2.5,0 c 0.277,0 0.5,-0.223 0.5,-0.5 l 0,-13 C 15,0.223 14.777,0 14.5,0 z"
     id="rect3077-0"
     inkscape:connector-curvature="0"
     sodipodi:nodetypes="sscccccccsssss" />
  <path
     style="color:#bebebe;fill:#bebebe;fill-opacity:1;fill-rule:nonzero;stroke:none;stroke-width:1;marker:none;visibility:visible;display:inline;overflow:visible;enable-background:accumulate"
     d="M 1.5,2 C 1.223,2 1,2.223 1,2.5 l 0,13 C 1,15.777 1.223,16 1.5,16 l 10,0 c 0.277,0 0.5,-0.223 0.5,-0.5 l 0,-3.5 1,0 0,-10 z m 0.5,1 9,0 0,12 -9,0 z"
     id="rect3077-5-6"
     inkscape:connector-curvature="0"
     sodipodi:nodetypes="csssssccccccccc" />
  <path
     style="color:#bebebe;fill:#bebebe;fill-opacity:1;fill-rule:nonzero;stroke:none;stroke-width:1;marker:none;visibility:visible;display:inline;overflow:visible;enable-background:accumulate"
     d="M 3 4 L 3 14 L 10 14 L 10 4 L 3 4 z "
     id="rect3077-5" />
</svg>

<?xml version="1.0" encoding="UTF-8" standalone="no"?>
<!-- Created with Inkscape (http://www.inkscape.org/) -->

<svg
   xmlns:dc="http://purl.org/dc/elements/1.1/"
   xmlns:cc="http://creativecommons.org/ns#"
   xmlns:rdf="http://www.w3.org/1999/02/22-rdf-syntax-ns#"
   xmlns:svg="http://www.w3.org/2000/svg"
   xmlns="http://www.w3.org/2000/svg"
   xmlns:xlink="http://www.w3.org/1999/xlink"
   xmlns:sodipodi="http://sodipodi.sourceforge.net/DTD/sodipodi-0.dtd"
   xmlns:inkscape="http://www.inkscape.org/namespaces/inkscape"
   version="1.1"
   width="16"
   height="16"
   id="svg7384"
   inkscape:version="0.48.2 r9819"
   sodipodi:docname="folder-documents-symbolic.svg">
  <sodipodi:namedview
     pagecolor="#ffffff"
     bordercolor="#666666"
     borderopacity="1"
     objecttolerance="10"
     gridtolerance="10"
     guidetolerance="10"
     inkscape:pageopacity="0"
     inkscape:pageshadow="2"
     inkscape:window-width="1280"
     inkscape:window-height="753"
     id="namedview7"
     showgrid="true"
     inkscape:zoom="23.380546"
     inkscape:cx="13.202492"
     inkscape:cy="7.9412332"
     inkscape:window-x="0"
     inkscape:window-y="24"
     inkscape:window-maximized="1"
     inkscape:current-layer="svg7384">
    <inkscape:grid
       type="xygrid"
       id="grid2996" />
  </sodipodi:namedview>
  <title
     id="title9167">Gnome Symbolic Icon Theme</title>
  <defs
     id="defs11">
    <linearGradient
       id="linearGradient4125">
      <stop
         style="stop-color:#bebebe;stop-opacity:0.72941178;"
         offset="0"
         id="stop4127" />
      <stop
         id="stop4129"
         offset="0.08611956"
         style="stop-color:#c8c8c8;stop-opacity:1;" />
      <stop
         style="stop-color:#cdcdcd;stop-opacity:0.87843138;"
         offset="0.92370826"
         id="stop4131" />
      <stop
         style="stop-color:#d3d3d3;stop-opacity:0.74901962;"
         offset="1"
         id="stop4133" />
    </linearGradient>
    <linearGradient
       id="linearGradient4116">
      <stop
         style="stop-color:#bebebe;stop-opacity:0.61739129;"
         offset="0"
         id="stop4119" />
      <stop
         style="stop-color:#bebebe;stop-opacity:0.16521738;"
         offset="1"
         id="stop4121" />
    </linearGradient>
    <linearGradient
       id="linearGradient3932">
      <stop
         style="stop-color:#bebebe;stop-opacity:1;"
         offset="0"
         id="stop3934" />
      <stop
         style="stop-color:#bebebe;stop-opacity:0.7478261;"
         offset="1"
         id="stop3936" />
    </linearGradient>
    <linearGradient
       inkscape:collect="always"
       xlink:href="#linearGradient3932"
       id="linearGradient3938"
       x1="12.570396"
       y1="13"
       x2="12.570396"
       y2="1"
       gradientUnits="userSpaceOnUse" />
    <linearGradient
       inkscape:collect="always"
       xlink:href="#linearGradient4125"
       id="linearGradient4032"
       gradientUnits="userSpaceOnUse"
       gradientTransform="matrix(0.64285714,0,0,1.5,4.3571429,-5.0000004)"
       x1="8"
       y1="11.333334"
       x2="8"
       y2="4.666667" />
    <linearGradient
       id="linearGradient4114-1">
      <stop
         id="stop4116-38"
         offset="0"
         style="stop-color:#bebebe;stop-opacity:0.40000001;" />
      <stop
         style="stop-color:#c8c8c8;stop-opacity:0.4173913;"
         offset="0.08611956"
         id="stop4122-7" />
      <stop
         id="stop4124-4"
         offset="0.92370826"
         style="stop-color:#cdcdcd;stop-opacity:0.4173913;" />
      <stop
         id="stop4118-9"
         offset="1"
         style="stop-color:#d3d3d3;stop-opacity:0;" />
    </linearGradient>
    <linearGradient
       y2="4.666667"
       x2="8"
       y1="11.333334"
       x1="8"
       gradientTransform="matrix(0.64285714,0,0,1.5,1.3571429,-3.0000004)"
       gradientUnits="userSpaceOnUse"
       id="linearGradient4052"
       xlink:href="#linearGradient4114-1"
       inkscape:collect="always" />
    <linearGradient
       inkscape:collect="always"
       xlink:href="#linearGradient4116"
       id="linearGradient4123"
       x1="6"
       y1="14"
       x2="6"
       y2="4"
       gradientUnits="userSpaceOnUse" />
  </defs>
  <metadata
     id="metadata90">
    <rdf:RDF>
      <cc:Work
         rdf:about="">
        <dc:format>image/svg+xml</dc:format>
        <dc:type
           rdf:resource="http://purl.org/dc/dcmitype/StillImage" />
        <dc:title>Gnome Symbolic Icon Theme</dc:title>
      </cc:Work>
    </rdf:RDF>
  </metadata>
  <path
     style="color:#bebebe;fill:#bebebe;fill-opacity:1;fill-rule:nonzero;stroke:none;stroke-width:1;marker:none;visibility:visible;display:inline;overflow:visible;enable-background:accumulate"
     d="M 4.5,0 C 4.223,0 4,0.223 4,0.5 L 4,2 5,2 5,1 l 9,0 0,12 -2,0 0,1 2.5,0 c 0.277,0 0.5,-0.223 0.5,-0.5 l 0,-13 C 15,0.223 14.777,0 14.5,0 z"
     id="rect3077-0"
     inkscape:connector-curvature="0"
     sodipodi:nodetypes="sscccccccsssss" />
  <path
     style="color:#bebebe;fill:url(#linearGradient3938);fill-opacity:1;fill-rule:nonzero;stroke:none;stroke-width:1;marker:none;visibility:visible;display:inline;overflow:visible;enable-background:accumulate"
     d="M 11.5 2 C 11.777 2 12 2.223 12 2.5 L 12 12 L 13 12 L 13 2 L 11.5 2 z "
     id="rect3077-5-6" />
  <path
     style="color:#bebebe;fill:#bebebe;fill-opacity:1;fill-rule:nonzero;stroke:none;stroke-width:1;marker:none;visibility:visible;display:inline;overflow:visible;enable-background:accumulate"
     d="M 1.5 2 C 1.223 2 1 2.223 1 2.5 L 1 15.5 C 1 15.777 1.223 16 1.5 16 L 11.5 16 C 11.777 16 12 15.777 12 15.5 L 12 2.5 C 12 2.223 11.777 2 11.5 2 L 1.5 2 z M 2 3 L 11 3 L 11 15 L 2 15 L 2 3 z "
     id="rect3077" />
  <path
     style="color:#bebebe;fill:url(#linearGradient4123);fill-opacity:1;fill-rule:nonzero;stroke:none;stroke-width:1;marker:none;visibility:visible;display:inline;overflow:visible;enable-background:accumulate"
     d="M 3 4 L 3 14 L 10 14 L 10 4 L 3 4 z "
     id="rect3077-5" />
  <path
     style="color:#bebebe;fill:url(#linearGradient4032);fill-opacity:1.0;fill-rule:nonzero;stroke:none;stroke-width:1;marker:none;visibility:visible;display:inline;overflow:visible;enable-background:accumulate"
     d="m 5,1 0,1 1,0 5.5,0 1.5,0 0,10 -1,0 0,1 2,0 0,-12 z"
     id="rect4016"
     inkscape:connector-curvature="0"
     sodipodi:nodetypes="ccccccccccc" />
  <path
     inkscape:connector-curvature="0"
     style="color:#bebebe;fill:url(#linearGradient4052);fill-opacity:1;fill-rule:nonzero;stroke:none;stroke-width:1;marker:none;visibility:visible;display:inline;overflow:visible;enable-background:accumulate"
     d="m 2,3 0,12 9,0 0,-12 z m 1,1 7,0 0,10 -7,0 z"
     id="rect4016-3"
     sodipodi:nodetypes="cccccccccc" />
</svg>
